RestoDelMundo/Suecia/Otras Categorias/Ahlafors If.svg

<svg xmlns="http://www.w3.org/2000/svg" xmlns:xlink="http://www.w3.org/1999/xlink" viewBox="0 0 566.93 550.22"><defs><linearGradient id="a" x1="68.89" x2="125.11" y1="489.92" y2="489.92" gradientUnits="userSpaceOnUse"><stop offset="0" stop-color="#d1d3d4"/><stop offset=".44" stop-color="#f8f8f9"/><stop offset=".71" stop-color="#fff"/><stop offset="1" stop-color="#d1d3d4"/></linearGradient><linearGradient xlink:href="#a" id="d" x1="497.89" x2="441.67" y1="489.92" y2="489.92"/><linearGradient id="b" x1="34.89" x2="210.73" y1="323.46" y2="323.46" gradientUnits="userSpaceOnUse"><stop offset="0" stop-color="#d1d3d4"/><stop offset=".26" stop-color="#f8f8f9"/><stop offset=".66" stop-color="#fff"/><stop offset="1" stop-color="#d1d3d4"/></linearGradient><linearGradient xlink:href="#b" id="e" x1="36.89" x2="210.02" y1="372.28" y2="372.28"/><linearGradient xlink:href="#b" id="f" x1="36.89" x2="210.02" y1="426.06" y2="426.06"/><linearGradient xlink:href="#b" id="g" x1="36.89" x2="210.02" y1="299.02" y2="299.02"/><linearGradient xlink:href="#b" id="h" x1="36.89" x2="210.02" y1="348.05" y2="348.05"/><linearGradient xlink:href="#b" id="i" x1="36.89" x2="210.02" y1="401.9" y2="401.9"/><linearGradient xlink:href="#b" id="j" x1="34.89" x2="211.79" y1="465.98" y2="465.98"/><linearGradient xlink:href="#b" id="k" x1="34.89" x2="210.79" y1="448.2" y2="448.2"/><linearGradient xlink:href="#b" id="l" x1="125.46" x2="508.82" y1="114.96" y2="436.63"/><linearGradient id="m" x1="429.98" x2="134.5" y1="515.84" y2="515.84" gradientUnits="userSpaceOnUse"><stop offset="0" stop-color="#d1d3d4"/><stop offset=".38" stop-color="#f8f8f9"/><stop offset=".63" stop-color="#fff"/><stop offset="1" stop-color="#d1d3d4"/></linearGradient><linearGradient xlink:href="#b" id="n" x1="14.8" x2="662.01" y1="21.55" y2="564.62"/><linearGradient xlink:href="#b" id="o" x1="531.89" x2="356.05" y1="323.46" y2="323.46"/><linearGradient xlink:href="#b" id="p" x1="529.89" x2="356.76" y1="372.28" y2="372.28"/><linearGradient xlink:href="#b" id="q" x1="529.89" x2="356.76" y1="426.06" y2="426.06"/><linearGradient xlink:href="#b" id="r" x1="529.89" x2="356.76" y1="299.02" y2="299.02"/><linearGradient xlink:href="#b" id="s" x1="529.89" x2="356.76" y1="348.05" y2="348.05"/><linearGradient xlink:href="#b" id="t" x1="529.89" x2="356.76" y1="401.9" y2="401.9"/><linearGradient xlink:href="#b" id="u" x1="531.89" x2="354.98" y1="465.98" y2="465.98"/><linearGradient xlink:href="#b" id="v" x1="531.89" x2="355.98" y1="448.2" y2="448.2"/></defs><path d="M283.46 0 531 247.61l-10.66 10.58 1.88 36.36 44.71 4.47-155.59 155.52h118.15l-22.97 35.92 24.05 34.78h-95.83v24.98H132.19v-24.98H36.36l24.05-34.78-22.97-35.92h118.15L0 299.02l44.71-4.47 1.87-36.36-10.65-10.58z"/><path fill="url(#a)" d="M132.19 520.49v-38.67l16.71-22.46H46.15l20.02 31.18-20.74 29.95z"/><path fill="url(#d)" d="M434.74 520.49v-38.67l-16.71-22.46h102.75l-20.02 31.18 20.74 29.95z"/><path fill="url(#b)" d="m55.58 347.76 31.18-8.14-40.46-40.46-35.79 3.6z"/><path fill="url(#e)" d="m108.79 400.97 31.75-7.56-49.82-49.83-31.25 8.14z"/><path fill="url(#f)" d="m162.5 454.75 31.18-8.21-49.18-49.17-31.75 7.56z"/><path fill="url(#g)" d="m90.72 302.33-39.6-39.53-1.66 32.76 39.68 39.67z"/><path fill="url(#h)" d="m145.08 356.69-49.75-49.83-1.66 32.91 49.47 49.46z"/><path fill="url(#i)" d="m198.86 410.47-49.24-49.25-2.02 32.55 48.89 48.81z"/><path fill="url(#j)" d="m228.53 481.46-30.89-30.96-31.25 8.14 22.83 22.82z"/><path fill="url(#k)" d="m269.86 481.46-66.53-66.52-2.38 32.11 34.35 34.41z"/><path fill="#fd0" d="M283.46 20.3 510.7 247.61 283.46 474.77 56.23 247.61z"/><path d="m283.46 99.07 148.47 148.54L283.46 396 135 247.61z"/><path fill="url(#l)" d="m283.46 105.84 141.7 141.77-141.7 141.62-141.69-141.62z"/><path d="m283.46 112.61 134.93 135-134.93 134.85-134.92-134.85z"/><path fill="url(#m)" d="M136.94 486.22h293.04v59.26H136.94Z"/><path fill="#fff" d="M249.7 274.03h9.29v56.66h-9.29ZM282.89 330.7v-56.67h34.34v9.22H292.1v12.09h17.72v9.29H292.1v26.07z"/><path fill="#fff" d="M247.18 239.11h72.57l-36.28-99zm76 9.29h-79.39l-23.68 64.44-8.72-3.17 72.08-195.55 72.07 195.55-8.71 3.17Z"/><path d="M347.62 517.1c-4.54-1.73-7.13-4-7.13-9.07a10.7 10.7 0 0 1 .86-4.39c3.75-8.43 15.92-6 22-2l-4.11 4.9c-2.3-1.66-12-4.47-11.52 1 .15 1.73 2.09 3.17 4 4l2.88 1.08c5.12 2 8 4.18 8 10.16a11.4 11.4 0 0 1-.87 4.46c-3.6 8.21-16.27 7.42-22.39 2.88l3.38-5.18c2.81 2.08 7.49 4.1 10.73 1.65a4.17 4.17 0 0 0 1.23-5.47c-1.16-2.29-4.9-3.23-7.06-4.02M295.49 533.73a14.35 14.35 0 0 1-6.34-1.37 12.5 12.5 0 0 1-4.46-3.74 15.4 15.4 0 0 1-2.45-5.62 27.8 27.8 0 0 1-.86-7.12 28.7 28.7 0 0 1 .86-7.13 15.3 15.3 0 0 1 2.45-5.69 11.15 11.15 0 0 1 4.46-3.74 15.52 15.52 0 0 1 12.75 0 11 11 0 0 1 4.39 3.74 16.5 16.5 0 0 1 2.59 5.69 28.3 28.3 0 0 1 .87 7.13 27.4 27.4 0 0 1-.87 7.12 16.7 16.7 0 0 1-2.59 5.62 12.3 12.3 0 0 1-4.39 3.74 14.44 14.44 0 0 1-6.41 1.37m0-5.9c4.75 0 7.13-4 7.13-11.95 0-4-.58-6.92-1.73-8.93a5.74 5.74 0 0 0-5.33-3c-4.75 0-7.13 4-7.13 12s2.38 11.88 7.06 11.88M261.36 498.53h18.79v5.97h-11.73v8.14h9.14v5.98h-9.14v14.54h-7.06zM211.46 498.53h6.92v28.51h12.02v6.12h-18.94zM181.66 498.53h7.05v13.53h8.43v-13.53h7.12v34.63h-7.12v-14.98h-8.43v14.98h-7.05zM161.71 498.52h7l10.87 34.64h-7.42l-1.94-7.78h-10.59l-2 7.78h-6.84zm6.84 21-3.74-12.39-3.6 12.39ZM385.06 498.53h7.13v34.63h-7.13ZM398.59 498.53h17.57v5.97h-10.58v8.14h7.99v5.98h-7.99v14.54h-6.99zM241.78 498.52h7l10.87 34.64h-7.41l-1.95-7.78h-10.6l-2 7.78h-6.76zm6.84 21-3.75-12.39-3.48 12.39ZM314.14 498.52l10-.07c6.55-.07 12.6 2.52 12.6 10.3 0 4.53-2.16 7.34-5.84 9.72l8.49 14.61h-7.78c-2.16-3.67-4-7.56-6.19-11.16-.72-1.29-1.73-2-4.18-1.94v13.18h-7.05v-34.64Zm7.05 5.84v9.28c3-.07 6.34.94 7.56-3.09a5.31 5.31 0 0 0-1.22-5.11c-1.51-1.44-3.96-1.08-6.34-1.08M109.8 470.88c13.25 0 14.69 14.18 11.67 23.54-2.45 7.78-8.79 13.82-18.58 17.78l-3.38-4.89c4.68-2.59 9.64-4.68 12-10.51a14 14 0 0 1-1.73.07 13 13 0 0 1-12.79-13.25 12.64 12.64 0 0 1 12.81-12.74m0 6.62c-2.81 0-5 2.52-5 6.12s2.23 6.62 5 6.62 5-3 5-6.62-2.26-6.1-5-6.1ZM452.09 494.71v-14c-1.66 1.15-3.38 2.88-4.46 3.45l-4-3.24c5.26-4 8.72-8.42 10.73-9.5l4.39.72v22.61h4.9v6.48h-17.39v-6.48ZM80.93 494.71v-14c-1.66 1.15-3.38 2.88-4.46 3.45l-4-3.24c5.26-4 8.72-8.42 10.66-9.5l4.46.72v22.61h4.9v6.48H75.1v-6.48ZM492.05 481.75a9.41 9.41 0 0 1-3.17 7.77 9.39 9.39 0 0 1 4.25 8.36c-.5 12.31-14 14.11-23.54 13.53l-2-6c7 .36 18.5-1.44 16.49-8.93-1.37-5.69-7.06-3.89-9.79-4.25l.07-6.55c3 0 9.57.93 9.57-4 0-2.09-2-3.82-4.53-3.82-2.88 0-4.68 1.8-6.41 3.67l-5-3.31c2.09-5 7.27-6.84 11.95-6.69 5.99.35 12.11 3.59 12.11 10.22"/><path fill="url(#n)" d="m283.46 6.77 240.77 240.84L290.3 481.46h-6.76l233.92-233.85-234-234.07-234 234.07 233.93 233.85h-6.77L42.7 247.61z"/><path fill="url(#o)" d="m511.34 347.76-31.17-8.14 40.46-40.46 35.79 3.6z"/><path fill="url(#p)" d="m458.14 400.97-31.76-7.56 49.83-49.83 31.25 8.14z"/><path fill="url(#q)" d="m404.42 454.75-31.17-8.21 49.17-49.17 31.76 7.56z"/><path fill="url(#r)" d="m476.21 302.33 39.6-39.53 1.65 32.76-39.67 39.67z"/><path fill="url(#s)" d="m421.85 356.69 49.75-49.83 1.66 32.91-49.47 49.46z"/><path fill="url(#t)" d="m368.06 410.47 49.25-49.25 2.02 32.55-48.89 48.81z"/><path fill="url(#u)" d="m338.4 481.46 30.89-30.96 31.25 8.14-22.83 22.82z"/><path fill="url(#v)" d="m297.07 481.46 66.53-66.52 2.38 32.11-34.35 34.41z"/></svg>

<svg viewBox="0 0 566.93 550.22" xmlns="http://www.w3.org/2000/svg" xmlns:xlink="http://www.w3.org/1999/xlink"><defs><linearGradient id="a" gradientUnits="userSpaceOnUse" x1="68.89" x2="125.11" y1="489.92" y2="489.92"><stop offset="0" stop-color="#d1d3d4"/><stop offset=".44" stop-color="#f8f8f9"/><stop offset=".71" stop-color="#fff"/><stop offset="1" stop-color="#d1d3d4"/></linearGradient><linearGradient id="b" x1="497.89" x2="441.67" xlink:href="#a" y1="489.92" y2="489.92"/><linearGradient id="c" gradientUnits="userSpaceOnUse" x1="34.89" x2="210.73" y1="323.46" y2="323.46"><stop offset="0" stop-color="#d1d3d4"/><stop offset=".26" stop-color="#f8f8f9"/><stop offset=".66" stop-color="#fff"/><stop offset="1" stop-color="#d1d3d4"/></linearGradient><linearGradient id="d" x1="36.89" x2="210.02" xlink:href="#c" y1="372.28" y2="372.28"/><linearGradient id="e" x1="36.89" x2="210.02" xlink:href="#c" y1="426.06" y2="426.06"/><linearGradient id="f" x1="36.89" x2="210.02" xlink:href="#c" y1="299.02" y2="299.02"/><linearGradient id="g" x1="36.89" x2="210.02" xlink:href="#c" y1="348.05" y2="348.05"/><linearGradient id="h" x1="36.89" x2="210.02" xlink:href="#c" y1="401.9" y2="401.9"/><linearGradient id="i" x1="34.89" x2="211.79" xlink:href="#c" y1="465.98" y2="465.98"/><linearGradient id="j" x1="34.89" x2="210.79" xlink:href="#c" y1="448.2" y2="448.2"/><linearGradient id="k" x1="125.46" x2="508.82" xlink:href="#c" y1="114.96" y2="436.63"/><linearGradient id="l" gradientUnits="userSpaceOnUse" x1="429.98" x2="134.5" y1="515.84" y2="515.84"><stop offset="0" stop-color="#d1d3d4"/><stop offset=".38" stop-color="#f8f8f9"/><stop offset=".63" stop-color="#fff"/><stop offset="1" stop-color="#d1d3d4"/></linearGradient><linearGradient id="m" x1="14.8" x2="662.01" xlink:href="#c" y1="21.55" y2="564.62"/><linearGradient id="n" x1="531.89" x2="356.05" xlink:href="#c" y1="323.46" y2="323.46"/><linearGradient id="o" x1="529.89" x2="356.76" xlink:href="#c" y1="372.28" y2="372.28"/><linearGradient id="p" x1="529.89" x2="356.76" xlink:href="#c" y1="426.06" y2="426.06"/><linearGradient id="q" x1="529.89" x2="356.76" xlink:href="#c" y1="299.02" y2="299.02"/><linearGradient id="r" x1="529.89" x2="356.76" xlink:href="#c" y1="348.05" y2="348.05"/><linearGradient id="s" x1="529.89" x2="356.76" xlink:href="#c" y1="401.9" y2="401.9"/><linearGradient id="t" x1="531.89" x2="354.98" xlink:href="#c" y1="465.98" y2="465.98"/><linearGradient id="u" x1="531.89" x2="355.98" xlink:href="#c" y1="448.2" y2="448.2"/></defs><path d="M 283.46 0 L 531 247.61 L 520.34 258.19 L 522.22 294.55 L 566.93 299.02 L 411.34 454.54 L 529.49 454.54 L 506.52 490.46 L 530.57 525.24 L 434.74 525.24 L 434.74 550.22 L 132.19 550.22 L 132.19 525.24 L 36.36 525.24 L 60.41 490.46 L 37.44 454.54 L 155.59 454.54 L 0 299.02 L 44.71 294.55 L 46.58 258.19 L 35.93 247.61 L 283.46 0 Z"/><path d="M 132.19 520.49 L 132.19 481.82 L 148.9 459.36 L 46.15 459.36 L 66.17 490.54 L 45.43 520.49 L 132.19 520.49 Z" fill="url(#a)"/><path d="M 434.74 520.49 L 434.74 481.82 L 418.03 459.36 L 520.78 459.36 L 500.76 490.54 L 521.5 520.49 L 434.74 520.49 Z" fill="url(#b)"/><path d="M 55.58 347.76 L 86.76 339.62 L 46.3 299.16 L 10.51 302.76 L 55.58 347.76 Z" fill="url(#c)"/><path d="M 108.79 400.97 L 140.54 393.41 L 90.72 343.58 L 59.47 351.72 L 108.79 400.97 Z" fill="url(#d)"/><path d="M 162.5 454.75 L 193.68 446.54 L 144.5 397.37 L 112.75 404.93 L 162.5 454.75 Z" fill="url(#e)"/><path d="M 90.72 302.33 L 51.12 262.8 L 49.46 295.56 L 89.14 335.23 L 90.72 302.33 Z" fill="url(#f)"/><path d="M 145.08 356.69 L 95.33 306.86 L 93.67 339.77 L 143.14 389.23 L 145.08 356.69 Z" fill="url(#g)"/><path d="M 198.86 410.47 L 149.62 361.22 L 147.6 393.77 L 196.49 442.58 L 198.86 410.47 Z" fill="url(#h)"/><path d="M 228.53 481.46 L 197.64 450.5 L 166.39 458.64 L 189.22 481.46 L 228.53 481.46 Z" fill="url(#i)"/><path d="M 269.86 481.46 L 203.33 414.94 L 200.95 447.05 L 235.3 481.46 L 269.86 481.46 Z" fill="url(#j)"/><path d="M 283.46 20.3 L 510.7 247.61 L 283.46 474.77 L 56.23 247.61 L 283.46 20.3 Z" fill="#fd0"/><path d="M 283.46 99.07 L 431.93 247.61 L 283.46 396 L 135 247.61 L 283.46 99.07 Z"/><path d="M 283.46 105.84 L 425.16 247.61 L 283.46 389.23 L 141.77 247.61 L 283.46 105.84 Z" fill="url(#k)"/><path d="M 283.46 112.61 L 418.39 247.61 L 283.46 382.46 L 148.54 247.61 L 283.46 112.61 Z"/><path d="M 136.94 486.22 H 429.98 V 545.48 H 136.94 Z" fill="url(#l)"/><path d="M 249.7 274.03 H 258.99 V 330.69 H 249.7 Z" fill="#fff"/><path d="M 282.89 330.7 L 282.89 274.03 L 317.23 274.03 L 317.23 283.25 L 292.1 283.25 L 292.1 295.34 L 309.82 295.34 L 309.82 304.63 L 292.1 304.63 L 292.1 330.7 L 282.89 330.7 Z" fill="#fff"/><path d="M 262.79 385.59 h 72.57 l -36.28 -99 l -36.29 99 Z m 76 9.29 H 259.4 l -23.68 64.44 L 227 456.15 L 299.08 260.6 l 72.07 195.55 l -8.71 3.17 Z" fill="#fff" transform="translate(-15.61 -146.48)"/><path d="M 363.23 663.58 c -4.54 -1.73 -7.13 -4 -7.13 -9.07 a 10.68 10.68 0 0 1 .86 -4.39 c 3.75 -8.43 15.92 -6 22 -2 l -4.11 4.9 c -2.3 -1.66 -12 -4.47 -11.52 1 c .15 1.73 2.09 3.17 4 4 l 2.88 1.08 c 5.12 2 8 4.18 8 10.16 a 11.4 11.4 0 0 1 -.87 4.46 c -3.6 8.21 -16.27 7.42 -22.39 2.88 l 3.38 -5.18 c 2.81 2.08 7.49 4.1 10.73 1.65 a 4.17 4.17 0 0 0 1.23 -5.47 C 369.13 665.31 365.39 664.37 363.23 663.58 Z" transform="translate(-15.61 -146.48)"/><path d="M 311.1 680.21 a 14.35 14.35 0 0 1 -6.34 -1.37 a 12.5 12.5 0 0 1 -4.46 -3.74 a 15.44 15.44 0 0 1 -2.45 -5.62 a 27.84 27.84 0 0 1 -.86 -7.12 a 28.72 28.72 0 0 1 .86 -7.13 a 15.27 15.27 0 0 1 2.45 -5.69 a 11.15 11.15 0 0 1 4.46 -3.74 a 15.52 15.52 0 0 1 12.75 0 a 11 11 0 0 1 4.39 3.74 a 16.46 16.46 0 0 1 2.59 5.69 a 28.25 28.25 0 0 1 .87 7.13 a 27.4 27.4 0 0 1 -.87 7.12 a 16.71 16.71 0 0 1 -2.59 5.62 a 12.27 12.27 0 0 1 -4.39 3.74 a 14.44 14.44 0 0 1 -6.41 1.37 Z m 0 -5.9 c 4.75 0 7.13 -4 7.13 -11.95 c 0 -4 -.58 -6.92 -1.73 -8.93 a 5.74 5.74 0 0 0 -5.33 -3 c -4.75 0 -7.13 4 -7.13 12 S 306.42 674.31 311.1 674.31 Z" transform="translate(-15.61 -146.48)"/><path d="M 261.36 498.53 L 280.15 498.53 L 280.15 504.5 L 268.42 504.5 L 268.42 512.64 L 277.56 512.64 L 277.56 518.62 L 268.42 518.62 L 268.42 533.16 L 261.36 533.16 L 261.36 498.53 Z"/><path d="M 211.46 498.53 L 218.38 498.53 L 218.38 527.04 L 230.4 527.04 L 230.4 533.16 L 211.46 533.16 L 211.46 498.53 Z"/><path d="M 181.66 498.53 L 188.71 498.53 L 188.71 512.06 L 197.14 512.06 L 197.14 498.53 L 204.26 498.53 L 204.26 533.16 L 197.14 533.16 L 197.14 518.18 L 188.71 518.18 L 188.71 533.16 L 181.66 533.16 L 181.66 498.53 Z"/><path d="M 177.32 645 h 7 l 10.87 34.64 h -7.42 l -1.94 -7.78 H 175.24 l -2 7.78 h -6.84 L 177.32 645 Z m 6.84 21 l -3.74 -12.39 L 176.82 666 Z" transform="translate(-15.61 -146.48)"/><path d="M 385.06 498.53 H 392.19 V 533.16 H 385.06 Z"/><path d="M 398.59 498.53 L 416.16 498.53 L 416.16 504.5 L 405.58 504.5 L 405.58 512.64 L 413.57 512.64 L 413.57 518.62 L 405.58 518.62 L 405.58 533.16 L 398.59 533.16 L 398.59 498.53 Z"/><path d="M 257.39 645 h 7 l 10.87 34.64 h -7.41 l -1.95 -7.78 H 255.3 l -2 7.78 h -6.76 L 257.39 645 Z m 6.84 21 l -3.75 -12.39 L 257 666 Z" transform="translate(-15.61 -146.48)"/><path d="M 329.75 645 l 10 -.07 c 6.55 -.07 12.6 2.52 12.6 10.3 c 0 4.53 -2.16 7.34 -5.84 9.72 L 355 679.56 h -7.78 c -2.16 -3.67 -4 -7.56 -6.19 -11.16 c -.72 -1.29 -1.73 -2 -4.18 -1.94 v 13.18 h -7.05 V 645 Z m 7.05 5.84 v 9.28 c 3 -.07 6.34 .94 7.56 -3.09 a 5.31 5.31 0 0 0 -1.22 -5.11 C 341.63 650.48 339.18 650.84 336.8 650.84 Z" transform="translate(-15.61 -146.48)"/><path d="M 125.41 617.36 c 13.25 0 14.69 14.18 11.67 23.54 c -2.45 7.78 -8.79 13.82 -18.58 17.78 l -3.38 -4.89 c 4.68 -2.59 9.64 -4.68 12 -10.51 a 14.3 14.3 0 0 1 -1.73 .07 A 13 13 0 0 1 112.6 630.1 a 12.64 12.64 0 0 1 12.81 -12.74 Z m 0 6.62 c -2.81 0 -5 2.52 -5 6.12 s 2.23 6.62 5 6.62 s 5 -3 5 -6.62 S 128.15 624 125.41 624 Z" transform="translate(-15.61 -146.48)"/><path d="M 467.7 641.19 v -14 c -1.66 1.15 -3.38 2.88 -4.46 3.45 l -4 -3.24 c 5.26 -4 8.72 -8.42 10.73 -9.5 l 4.39 .72 v 22.61 h 4.9 v 6.48 H 461.87 v -6.48 Z" transform="translate(-15.61 -146.48)"/><path d="M 96.54 641.19 v -14 c -1.66 1.15 -3.38 2.88 -4.46 3.45 l -4 -3.24 c 5.26 -4 8.72 -8.42 10.66 -9.5 l 4.46 .72 v 22.61 h 4.9 v 6.48 H 90.71 v -6.48 Z" transform="translate(-15.61 -146.48)"/><path d="M 507.66 628.23 a 9.41 9.41 0 0 1 -3.17 7.77 a 9.39 9.39 0 0 1 4.25 8.36 c -.5 12.31 -14 14.11 -23.54 13.53 l -2 -6 c 7 .36 18.5 -1.44 16.49 -8.93 c -1.37 -5.69 -7.06 -3.89 -9.79 -4.25 l .07 -6.55 c 3 0 9.57 .93 9.57 -4 c 0 -2.09 -2 -3.82 -4.53 -3.82 c -2.88 0 -4.68 1.8 -6.41 3.67 l -5 -3.31 c 2.09 -5 7.27 -6.84 11.95 -6.69 C 501.54 618.36 507.66 621.6 507.66 628.23 Z" transform="translate(-15.61 -146.48)"/><path d="M 283.46 6.77 L 524.23 247.61 L 290.3 481.46 L 283.54 481.46 L 517.46 247.61 L 283.46 13.54 L 49.46 247.61 L 283.39 481.46 L 276.62 481.46 L 42.7 247.61 L 283.46 6.77 Z" fill="url(#m)"/><path d="M 511.34 347.76 L 480.17 339.62 L 520.63 299.16 L 556.42 302.76 L 511.34 347.76 Z" fill="url(#n)"/><path d="M 458.14 400.97 L 426.38 393.41 L 476.21 343.58 L 507.46 351.72 L 458.14 400.97 Z" fill="url(#o)"/><path d="M 404.42 454.75 L 373.25 446.54 L 422.42 397.37 L 454.18 404.93 L 404.42 454.75 Z" fill="url(#p)"/><path d="M 476.21 302.33 L 515.81 262.8 L 517.46 295.56 L 477.79 335.23 L 476.21 302.33 Z" fill="url(#q)"/><path d="M 421.85 356.69 L 471.6 306.86 L 473.26 339.77 L 423.79 389.23 L 421.85 356.69 Z" fill="url(#r)"/><path d="M 368.06 410.47 L 417.31 361.22 L 419.33 393.77 L 370.44 442.58 L 368.06 410.47 Z" fill="url(#s)"/><path d="M 338.4 481.46 L 369.29 450.5 L 400.54 458.64 L 377.71 481.46 L 338.4 481.46 Z" fill="url(#t)"/><path d="M 297.07 481.46 L 363.6 414.94 L 365.98 447.05 L 331.63 481.46 L 297.07 481.46 Z" fill="url(#u)"/></svg>
